X: 29747
T: Nyth Y Gwcw
R: barndance
M: 4/4
K: Ddorian
|:FEFE D2 d2|A2 A2 G4|FEFE D2 AB|c2 c2 E4|
FEFE D2 d2|A2 A2 G4|FEFE DEFG|A2 A2 d4:|
|:defe d2 d2|cBAG A4|defg a2 a2|g2 d2 d3 e|
fefe d2 d2|cBAG A3 G|FEFE DEFG|A2 A2 d4:|

